X:1
T:Title
%%score { 1 | 2 }
L:1/8
M:3/4
K:Eb
V:1 treble nm="Grand Piano"
V:2 bass 
V:1
 z2 z2[Q:1/4=112] B2 | B2 G2 F2 | E2 F2 [EG]2 | [EA]2 [EB]2 [Ec]2 |[M:2/4] [EB]4 |[M:1/4] [FB]2 | %6
[M:3/4] [Ge]2 [Gd]2 [Gc]2 | d2 c2 B2 | c2 G2 =A2 |[M:2/4] [DB]4 |[M:1/4] [FB]2 |[M:3/4] B2 G2 F2 | %12
 E2 F2 [EG]2 | [EA]2 [EB]2 [Ec]2 |[M:2/4] B4 |[M:1/4] B2 |[M:3/4] e2 e2 [Ec]2 | [EB]2 [EG]2 [Ec]2 | %18
 [EB]2 E2 F2 | E6 |] %20
V:2
 z2 z2 [E,G,E]2 | [E,G,E]2 [E,B,E]2 [E,A,E]2 | [E,G,]2 [E,A,E]2 [_D,B,]2 | %3
 [C,A,]2 [B,,G,]2 [A,,A,]2 |[M:2/4] [E,G,]4 |[M:1/4] [D,B,]2 |[M:3/4] [C,C]2 [D,=B,]2 [E,C]2 | %7
 [F,B,F]2 [F,=A,E]2 [F,B,D]2 | [F,=A,E]2 [F,B,E]2 [F,CE]2 |[M:2/4] [B,,B,]4 |[M:1/4] [D,B,]2 | %11
[M:3/4] [E,G,E]2 [E,B,E]2 [E,A,E]2 | [E,G,]2 [E,A,E]2 [_D,B,]2 | [C,A,]2 [B,,G,]2 [A,,A,]2 | %14
[M:2/4] [E,G,E]4 |[M:1/4] [F,A,D]2 |[M:3/4] [G,B,E]2 [A,CE]2 [C,A,]2 | [E,G,]2 [E,B,]2 [A,,A,]2 | %18
 [B,,G,]2 [B,,G,B,]2 [B,,A,B,]2 | [E,G,B,]6 |] %20

